icons/square-chevron-right-outline.svg

<svg xmlns="http://www.w3.org/2000/svg" width="24" height="24" viewBox="0 0 24 24">
  <path d="M19,2 C20.6568542,2 22,3.34314575 22,5 L22,5 L22,19 C22,20.6568542 20.6568542,22 19,22 L19,22 L5,22 C3.34314575,22 2,20.6568542 2,19 L2,19 L2,5 C2,3.34314575 3.34314575,2 5,2 L5,2 Z M19,4 L5,4 C4.44771525,4 4,4.44771525 4,5 L4,5 L4,19 C4,19.5522847 4.44771525,20 5,20 L5,20 L19,20 C19.5522847,20 20,19.5522847 20,19 L20,19 L20,5 C20,4.44771525 19.5522847,4 19,4 L19,4 Z M9.29289322,7.29289322 C9.68341751,6.90236893 10.3165825,6.90236893 10.7071068,7.29289322 L10.7071068,7.29289322 L14.7071068,11.2928932 L14.7902954,11.3871006 C15.0953203,11.7793918 15.0675907,12.3466228 14.7071068,12.7071068 L14.7071068,12.7071068 L10.7071068,16.7071068 L10.6128994,16.7902954 C10.2206082,17.0953203 9.65337718,17.0675907 9.29289322,16.7071068 L9.29289322,16.7071068 L9.20970461,16.6128994 C8.90467972,16.2206082 8.93240926,15.6533772 9.29289322,15.2928932 L9.29289322,15.2928932 L12.585,12 L9.29289322,8.70710678 L9.20970461,8.61289944 C8.90467972,8.22060824 8.93240926,7.65337718 9.29289322,7.29289322 Z"/>
</svg>

<svg xmlns="http://www.w3.org/2000/svg" viewBox="0 0 24 24">
  <path d="M19 2a3 3 0 0 1 3 3v14a3 3 0 0 1-3 3H5a3 3 0 0 1-3-3V5a3 3 0 0 1 3-3zm0 2H5a1 1 0 0 0-1 1v14a1 1 0 0 0 1 1h14a1 1 0 0 0 1-1V5a1 1 0 0 0-1-1zM9.3 7.3a1 1 0 0 1 1.4 0l4 4 .09.09a1 1 0 0 1-.08 1.32l-4 4-.1.08a1 1 0 0 1-1.32-.08l-.08-.1a1 1 0 0 1 .08-1.32L12.6 12 9.3 8.7l-.08-.09a1 1 0 0 1 .08-1.32z"/>
</svg>
